X:152
T: Uebersetzung
N: A0185
O: Europa, Mitteleuropa, Deutschland
N: Melodie ist die von A0184
R: Romanze, Ballade, Lied
M: 4/4
L: 1/8
K: G
G2 | G2G2G2G2 | A4A2
d2 | d2A2dc_B2 | A4z2
d2 | d2d2d2d2 | c4A2
_B2 | G2A2c_BAG | A4G2
d2 | =f2d_Bc2A2 | G4z2

@@@ Tune index: 152
